images/facecircle.svg

<?xml version="1.0" encoding="UTF-8" standalone="no"?><!DOCTYPE svg PUBLIC "-//W3C//DTD SVG 1.1//EN" "http://www.w3.org/Graphics/SVG/1.1/DTD/svg11.dtd"><svg width="100%" height="100%" viewBox="0 0 393 394" version="1.1" xmlns="http://www.w3.org/2000/svg" xmlns:xlink="http://www.w3.org/1999/xlink" xml:space="preserve" xmlns:serif="http://www.serif.com/" style="fill-rule:evenodd;clip-rule:evenodd;stroke-linejoin:round;stroke-miterlimit:2;"><g><circle cx="194.999" cy="196.999" r="191.557" style="fill:#9f9e9e;"/><g><path d="M115.822,158.234c-0.117,-1.388 -0.176,-2.789 -0.176,-4.2c0,-34.559 35.496,-62.617 79.217,-62.617c43.721,0 79.217,28.058 79.217,62.617c0,1.411 -0.059,2.812 -0.176,4.2l0.176,0l-6.13,47.262c1.646,-2.34 3.433,-3.601 5.126,-3.351c4.266,0.628 6.335,10.596 4.619,22.246c-1.715,11.65 -6.571,20.599 -10.837,19.97c-0.875,-0.129 -1.659,-0.652 -2.336,-1.502c-5.076,49.228 -34.351,87.032 -69.659,87.032c-35.239,0 -64.468,-37.655 -69.629,-86.743c-0.619,0.68 -1.319,1.1 -2.09,1.213c-4.266,0.629 -9.122,-8.32 -10.837,-19.97c-1.717,-11.65 0.353,-21.618 4.619,-22.246c1.578,-0.233 3.238,0.847 4.79,2.89l-6.07,-46.801l0.176,0Z" style="fill:#88563d;"/><path d="M194.863,58.465l2.888,-0.022c5.049,0.139 10.1,0.675 14.856,1.493c3.029,0.52 5.937,1.155 8.648,1.875c3.218,0.854 6.387,1.969 9.473,3.302c4.016,1.735 7.892,3.84 11.553,6.224c2.24,1.458 4.4,3.021 6.463,4.668c3.073,2.453 8.839,8.56 8.839,8.56c0,0 4.644,5.547 6.726,8.369c1.842,2.497 3.546,4.973 5.079,7.303c2.267,3.444 4.265,9.651 5.737,16.187c1.677,7.451 2.67,15.33 2.595,20.03c-0.277,17.354 -9.993,67.905 -9.993,67.905c0,0 -9.883,-35.122 -12.938,-50.325c-3.154,-15.695 -11.286,-15.95 -19.042,-18.831c-9.48,-3.523 -9.614,-3.409 -24.28,-5.403c-5.359,-0.728 -10.919,-1.102 -16.604,-1.123c-5.685,0.021 -11.246,0.395 -16.604,1.123c-14.666,1.994 -14.801,1.88 -24.281,5.403c-7.755,2.881 -15.887,3.136 -19.041,18.831c-3.055,15.203 -12.938,50.325 -12.938,50.325c0,0 -9.716,-50.551 -9.993,-67.905c-0.075,-4.7 0.918,-12.579 2.595,-20.03c1.471,-6.536 3.47,-12.743 5.736,-16.187c1.534,-2.33 3.238,-4.806 5.08,-7.303c2.081,-2.822 6.726,-8.369 6.726,-8.369c0,0 5.766,-6.107 8.839,-8.56c2.062,-1.647 4.222,-3.21 6.463,-4.668c3.661,-2.384 7.536,-4.489 11.552,-6.224c3.087,-1.333 6.256,-2.448 9.474,-3.302c2.711,-0.72 5.619,-1.355 8.648,-1.875c4.755,-0.818 9.807,-1.354 14.856,-1.493l2.888,0.022Z" style="fill:#333;"/><path d="M195.313,198.742c5.868,-0.162 10.685,-3.447 16.456,-5.313c6.048,-1.954 13.097,-2.422 19.03,-2.869c0.72,-0.054 1.485,-0.091 2.284,-0.111l2.502,-0.015c12.129,0.138 29.716,3 29.716,3l0,8.492c0,0 -2.106,-0.348 -2.851,2.196c-0.628,2.146 -0.555,6.111 -1.102,9.18c-0.793,4.453 -2.208,8.034 -3.279,9.877c-2.172,3.735 -5.917,6.759 -9.951,8.306c-4.53,1.736 -11.472,2.69 -17.229,2.111c-6.418,-0.645 -15.271,-1.749 -21.275,-5.985c-5.824,-4.109 -9.488,-18.528 -14.301,-19.391c-4.812,0.863 -8.476,15.282 -14.3,19.391c-6.005,4.236 -14.858,5.34 -21.275,5.985c-5.757,0.579 -12.699,-0.375 -17.229,-2.111c-4.034,-1.547 -7.779,-4.571 -9.951,-8.306c-1.071,-1.843 -2.486,-5.424 -3.279,-9.877c-0.547,-3.069 -0.474,-7.034 -1.102,-9.18c-0.745,-2.544 -2.851,-2.196 -2.851,-2.196l0,-8.492c0,0 17.587,-2.862 29.716,-3l2.502,0.015c0.799,0.02 1.564,0.057 2.284,0.111c5.933,0.447 12.982,0.915 19.029,2.869c5.772,1.866 10.589,5.151 16.456,5.313Zm-61.881,1.467c3.353,-3.996 14.179,-5.498 19.378,-6.464c3.88,-0.721 7.946,-0.082 11.82,0.668c4.752,0.919 13.303,1.798 16.692,4.847c3.389,3.05 4.054,9.085 3.643,13.45c-0.411,4.364 -2.35,9.901 -6.108,12.74c-4.117,3.111 -12.177,5.44 -18.599,5.928c-6.423,0.487 -15.343,-0.727 -19.938,-3.004c-3.914,-1.939 -6.592,-6.41 -7.63,-10.653c-1.148,-4.694 -2.612,-13.516 0.742,-17.512Zm123.763,0c-3.353,-3.996 -14.179,-5.498 -19.378,-6.464c-3.88,-0.721 -7.946,-0.082 -11.82,0.668c-4.752,0.919 -13.303,1.798 -16.692,4.847c-3.389,3.05 -4.054,9.085 -3.643,13.45c0.411,4.364 2.35,9.901 6.107,12.74c4.118,3.111 12.177,5.44 18.6,5.928c6.423,0.487 15.343,-0.727 19.937,-3.004c3.915,-1.939 6.593,-6.41 7.631,-10.653c1.148,-4.694 2.612,-13.516 -0.742,-17.512Z" style="fill:#333;"/></g></g></svg>

<?xml version="1.0" encoding="UTF-8" standalone="no"?>
<!DOCTYPE svg PUBLIC "-//W3C//DTD SVG 1.1//EN" "http://www.w3.org/Graphics/SVG/1.1/DTD/svg11.dtd">
<svg width="100%" height="100%" viewBox="0 0 393 394" version="1.1" xmlns="http://www.w3.org/2000/svg" xmlns:xlink="http://www.w3.org/1999/xlink" xml:space="preserve" xmlns:serif="http://www.serif.com/" style="fill-rule:evenodd;clip-rule:evenodd;stroke-linecap:round;stroke-linejoin:round;stroke-miterlimit:1.5;">
    <g>
        <circle cx="194.999" cy="196.999" r="191.557" style="fill:rgb(159,158,158);"/>
        <g>
            <path d="M115.822,158.234C115.705,156.846 115.646,155.445 115.646,154.034C115.646,119.475 151.142,91.417 194.863,91.417C238.584,91.417 274.08,119.475 274.08,154.034C274.08,155.445 274.021,156.846 273.904,158.234L274.08,158.234L267.95,205.496C269.596,203.156 271.383,201.895 273.076,202.145C277.342,202.773 279.411,212.741 277.695,224.391C275.98,236.041 271.124,244.99 266.858,244.361C265.983,244.232 265.199,243.709 264.522,242.859C259.446,292.087 230.171,329.891 194.863,329.891C159.624,329.891 130.395,292.236 125.234,243.148C124.615,243.828 123.915,244.248 123.144,244.361C118.878,244.99 114.022,236.041 112.307,224.391C110.59,212.741 112.66,202.773 116.926,202.145C118.504,201.912 120.164,202.992 121.716,205.035L115.646,158.234L115.822,158.234Z" style="fill:rgb(136,86,61);"/>
            <path d="M194.863,58.465L197.751,58.443C202.8,58.582 207.851,59.118 212.607,59.936C215.636,60.456 218.544,61.091 221.255,61.811C224.473,62.665 227.642,63.78 230.728,65.113C234.744,66.848 238.62,68.953 242.281,71.337C244.521,72.795 246.681,74.358 248.744,76.005C251.817,78.458 257.583,84.565 257.583,84.565C257.583,84.565 262.227,90.112 264.309,92.934C266.151,95.431 267.855,97.907 269.388,100.237C271.655,103.681 273.653,109.888 275.125,116.424C276.802,123.875 277.795,131.754 277.72,136.454C277.443,153.808 267.727,204.359 267.727,204.359C267.727,204.359 257.844,169.237 254.789,154.034C251.635,138.339 243.503,138.084 235.747,135.203C226.267,131.68 226.133,131.794 211.467,129.8C206.108,129.072 200.548,128.698 194.863,128.677C189.178,128.698 183.617,129.072 178.259,129.8C163.593,131.794 163.458,131.68 153.978,135.203C146.223,138.084 138.091,138.339 134.937,154.034C131.882,169.237 121.999,204.359 121.999,204.359C121.999,204.359 112.283,153.808 112.006,136.454C111.931,131.754 112.924,123.875 114.601,116.424C116.072,109.888 118.071,103.681 120.337,100.237C121.871,97.907 123.575,95.431 125.417,92.934C127.498,90.112 132.143,84.565 132.143,84.565C132.143,84.565 137.909,78.458 140.982,76.005C143.044,74.358 145.204,72.795 147.445,71.337C151.106,68.953 154.981,66.848 158.997,65.113C162.084,63.78 165.253,62.665 168.471,61.811C171.182,61.091 174.09,60.456 177.119,59.936C181.874,59.118 186.926,58.582 191.975,58.443L194.863,58.465Z" style="fill:rgb(51,51,51);"/>
            <path d="M195.313,198.742C201.181,198.58 205.998,195.295 211.769,193.429C217.817,191.475 224.866,191.007 230.799,190.56C231.519,190.506 232.284,190.469 233.083,190.449L235.585,190.434C247.714,190.572 265.301,193.434 265.301,193.434L265.301,201.926C265.301,201.926 263.195,201.578 262.45,204.122C261.822,206.268 261.895,210.233 261.348,213.302C260.555,217.755 259.14,221.336 258.069,223.179C255.897,226.914 252.152,229.938 248.118,231.485C243.588,233.221 236.646,234.175 230.889,233.596C224.471,232.951 215.618,231.847 209.614,227.611C203.79,223.502 200.126,209.083 195.313,208.22C190.501,209.083 186.837,223.502 181.013,227.611C175.008,231.847 166.155,232.951 159.738,233.596C153.981,234.175 147.039,233.221 142.509,231.485C138.475,229.938 134.73,226.914 132.558,223.179C131.487,221.336 130.072,217.755 129.279,213.302C128.732,210.233 128.805,206.268 128.177,204.122C127.432,201.578 125.326,201.926 125.326,201.926L125.326,193.434C125.326,193.434 142.913,190.572 155.042,190.434L157.544,190.449C158.343,190.469 159.108,190.506 159.828,190.56C165.761,191.007 172.81,191.475 178.857,193.429C184.629,195.295 189.446,198.58 195.313,198.742ZM133.432,200.209C136.785,196.213 147.611,194.711 152.81,193.745C156.69,193.024 160.756,193.663 164.63,194.413C169.382,195.332 177.933,196.211 181.322,199.26C184.711,202.31 185.376,208.345 184.965,212.71C184.554,217.074 182.615,222.611 178.857,225.45C174.74,228.561 166.68,230.89 160.258,231.378C153.835,231.865 144.915,230.651 140.32,228.374C136.406,226.435 133.728,221.964 132.69,217.721C131.542,213.027 130.078,204.205 133.432,200.209ZM257.195,200.209C253.842,196.213 243.016,194.711 237.817,193.745C233.937,193.024 229.871,193.663 225.997,194.413C221.245,195.332 212.694,196.211 209.305,199.26C205.916,202.31 205.251,208.345 205.662,212.71C206.073,217.074 208.012,222.611 211.769,225.45C215.887,228.561 223.946,230.89 230.369,231.378C236.792,231.865 245.712,230.651 250.306,228.374C254.221,226.435 256.899,221.964 257.937,217.721C259.085,213.027 260.549,204.205 257.195,200.209Z" style="fill:rgb(51,51,51);"/>
        </g>
        <g transform="matrix(1.01225,0,0,1,-3.22919,0)">
            <path d="M197.313,317C193.888,316.432 143.472,301 143.472,293C143.472,262.586 144.46,243 144.46,243C144.46,243 173.833,256 196.5,256C219.167,256 251.154,244 251.154,244C251.154,244 250.166,288 248.19,296C243.87,313.489 197.897,317.097 197.313,317Z" style="fill:rgb(157,218,212);"/>
        </g>
        <g transform="matrix(1,0,0,1,2,6.295)">
            <path d="M142,243C131.142,231.968 121.773,212.807 120,198.064" style="fill:none;stroke:rgb(157,218,212);stroke-width:2px;"/>
        </g>
        <g transform="matrix(1,0,0,1,109,1.936)">
            <path d="M142,243C151,231.064 160.773,218.807 159,204.064" style="fill:none;stroke:rgb(157,218,212);stroke-width:2px;"/>
        </g>
    </g>
</svg>
